-----BEGIN PGP PUBLIC KEY BLOCK-----

mQINBGqHq38BEADV10rMRIdusgEnPDyaN9uKGK+XSDrpadH+GbZNjELQFVuyAJ8H
/9VMJCjSJonTYCKVihX//QDIcOxJ9lXzk34ylzvequQoBU99P+HjrnLKxQVMZQx7
BkH3TGWV73X+gZPx3Nxk5GaBBuz8ahiO0UEpIQvd7yik186BID2yXpm1IzmajcKO
wMNCw14QIlZtsc2ImXZzuJwa8ueOSf8wRAQE01tnli4kyhvKL9OW8M+JaSlnnhWH
+cdVkQiQTKUM3awjlIOyQ9PIUimp5VAF3Gg21iY/MJ+v2JBZ6CZGEanOLV4e2wGs
84Xjf4NY39VyLp78z3JCKraylkrsu6Hy6qLq9WATTLUugstJfZQ1dRWXE6J2ecok
zTGdGq0OMI1x2OYqEPsbjnjWzruD7TtbVUmD0dmwq3fHvN7ZQMba72ymLRh+BzRP
wMH13u4+jBnSBRAhitvjI/AjFYVRSFCBIaZtMn2hF+ZiNI19n/TswU6/YDPOT3NR
F+2cqXVNuodiHia5t9CCg92UQET3icN/D15+9rtculoCgT86HipOfdzrNYWYnqs2
Y7vMXkjAeyx6HB7g4Eat3FimbT05oljFUwOeePgqxChe5YLZbZ5u1/W4QCMMyKpP
PS3E3Hm7uw8L/eL/UAd3w5Jxt6ERU9Sqlzy5199kVNuVOgiKVL9oG1h9VwARAQAB
tDhNYXR0T1MgUmVwb3NpdG9yeSBTaWduaW5nIEtleSA8cGFja2FnZXNAbWF0dHNo
ZXJmZXkuY29tPokCVwQTAQoAQRYhBMUuQ7J3dnLgT8Wu4PmyxOBtccHQBQJqh6t/
AhsDBQkFo5qABQsJCAcCAiICBhUKCQgLAgQWAgMBAh4HAheAAAoJEPmyxOBtccHQ
5VQQAJ3znOxFhfH/xYNWXOfrRGhrfafboNKTOmVbfirjwKdONMqKZIjoW+LKqFgd
VUzAdOof3TF1cLm4sfTmARM6aErcAWUvEjZhgqGkHc9xAQ+4Esime1n4/WKJWmIC
V6+0oxTKy1fI9prJfV8ZE2swev4x6IpTdCaE9mzNjestAqUc36rMkX5rN7ZcAwYe
Ui5Ec5aHwUu+A4hXgGvth9KApFRrqRfiP+FChar4Q6bgT7qyuk7r1ak0oKUvhcCO
zh4vul/w50s6ZK8lyCu1Q+N1Ydlg59Geg1PYo3poJ3ez2Jp0XtUFyg2XC2edbVo3
m4bM/s89JavuSc3MTvtqcnCj3/V9Z3lgw0KWhe0mnZVXXZ8MhONxZEqD8yRNnFOy
na3i2hy5Wm2qjbT6n6i3XKF3jUvkE9bu0pRmgQyIRcLNmxzVr88BsnVr+aOFbUXM
eAeRZjqbabm26MQgTBJQx4QcRdUxY8dworZq1vgIrnPvTIrcmFe/G/lFzsBW3DyL
1TQPbFWE3vt7uJ3eyOZa0gr4oCKB875n8Qu8SgVl8rrRomfLPmJCnmWMxs4BMKBB
mfj1q+MedASLVSAZ/9MrFhd18zNTZNoiX1tfBLvxZEtWN9HPn6czR1Au/nT0v3p8
0IMiM/mvpP+G60l1a4aR9sOCzfT3wj7UOD6apQnSElab/WGD
=qtor
-----END PGP PUBLIC KEY BLOCK-----
